svg/24/clipguard.svg

<svg width="24" height="24" viewBox="0 0 24 24" fill="currentColor" xmlns="http://www.w3.org/2000/svg"><path d="M11.25 3.5C11.25 3.08579 11.5858 2.75 12 2.75C12.4142 2.75 12.75 3.08579 12.75 3.5V4.5C12.75 4.91421 12.4142 5.25 12 5.25C11.5858 5.25 11.25 4.91421 11.25 4.5V3.5Z"/><path d="M5.75 5C6.16421 5 6.5 5.33579 6.5 5.75V18.25C6.5 18.6642 6.16421 19 5.75 19C5.33579 19 5 18.6642 5 18.25V5.75C5 5.33579 5.33579 5 5.75 5Z"/><path d="M2.75 8C3.16421 8 3.5 8.33579 3.5 8.75V15.25C3.5 15.6642 3.16421 16 2.75 16C2.33579 16 2 15.6642 2 15.25V8.75C2 8.33579 2.33579 8 2.75 8Z"/><path d="M8.75 8C9.16421 8 9.5 8.33579 9.5 8.75V15.25C9.5 15.6642 9.16421 16 8.75 16C8.33579 16 8 15.6642 8 15.25V8.75C8 8.33579 8.33579 8 8.75 8Z"/><path d="M17.5 14.25C17.5 14.6642 17.8358 15 18.25 15C18.6642 15 19 14.6642 19 14.25V9.75C19 9.33579 18.6642 9 18.25 9C17.8358 9 17.5 9.33579 17.5 9.75V14.25Z"/><path d="M15.25 10.75C14.8358 10.75 14.5 11.0858 14.5 11.5V12.5C14.5 12.9142 14.8358 13.25 15.25 13.25C15.6642 13.25 16 12.9142 16 12.5V11.5C16 11.0858 15.6642 10.75 15.25 10.75Z"/><path d="M20.5 11.5C20.5 11.0858 20.8358 10.75 21.25 10.75C21.6642 10.75 22 11.0858 22 11.5V12.5C22 12.9142 21.6642 13.25 21.25 13.25C20.8358 13.25 20.5 12.9142 20.5 12.5V11.5Z"/><path d="M12 6.75C11.5858 6.75 11.25 7.08579 11.25 7.5V8.5C11.25 8.91421 11.5858 9.25 12 9.25C12.4142 9.25 12.75 8.91421 12.75 8.5V7.5C12.75 7.08579 12.4142 6.75 12 6.75Z"/><path d="M12 17.25C12.4142 17.25 12.75 16.9142 12.75 16.5V15.5C12.75 15.0858 12.4142 14.75 12 14.75C11.5858 14.75 11.25 15.0858 11.25 15.5V16.5C11.25 16.9142 11.5858 17.25 12 17.25Z"/><path d="M12.75 20.5C12.75 20.9142 12.4142 21.25 12 21.25C11.5858 21.25 11.25 20.9142 11.25 20.5V19.5C11.25 19.0858 11.5858 18.75 12 18.75C12.4142 18.75 12.75 19.0858 12.75 19.5V20.5Z"/><path d="M12 10.75C11.5858 10.75 11.25 11.0858 11.25 11.5V12.5C11.25 12.9142 11.5858 13.25 12 13.25C12.4142 13.25 12.75 12.9142 12.75 12.5V11.5C12.75 11.0858 12.4142 10.75 12 10.75Z"/></svg>

<svg xmlns="http://www.w3.org/2000/svg" width="24" height="24" fill="currentColor" viewBox="0 0 24 24">
  <path d="M11.25 3.5a.75.75 0 0 1 1.5 0v1a.75.75 0 0 1-1.5 0v-1ZM5.75 5a.75.75 0 0 1 .75.75v12.5a.75.75 0 0 1-1.5 0V5.75A.75.75 0 0 1 5.75 5Zm-3 3a.75.75 0 0 1 .75.75v6.5a.75.75 0 0 1-1.5 0v-6.5A.75.75 0 0 1 2.75 8Zm6 0a.75.75 0 0 1 .75.75v6.5a.75.75 0 0 1-1.5 0v-6.5A.75.75 0 0 1 8.75 8Zm8.75 6.25a.75.75 0 0 0 1.5 0v-4.5a.75.75 0 0 0-1.5 0v4.5Zm-2.25-3.5a.75.75 0 0 0-.75.75v1a.75.75 0 0 0 1.5 0v-1a.75.75 0 0 0-.75-.75Zm5.25.75a.75.75 0 0 1 1.5 0v1a.75.75 0 0 1-1.5 0v-1ZM12 6.75a.75.75 0 0 0-.75.75v1a.75.75 0 0 0 1.5 0v-1a.75.75 0 0 0-.75-.75Zm0 10.5a.75.75 0 0 0 .75-.75v-1a.75.75 0 0 0-1.5 0v1c0 .414.336.75.75.75Zm.75 3.25a.75.75 0 0 1-1.5 0v-1a.75.75 0 0 1 1.5 0v1ZM12 10.75a.75.75 0 0 0-.75.75v1a.75.75 0 0 0 1.5 0v-1a.75.75 0 0 0-.75-.75Z"/>
</svg>
